X:550
T: Des Gesellen Feierabend (250a), S. 536
N: T0438
O: Luxemburg
S: Singendes Volk, Esch-Alzette, 1937 posth.]
N: Heffingen, hhh Nikolaus Ewen, 9.9.1934
R: Berufslied]
M: 4/4
L: 1/8
K: G
D2 | G2G2G2GB | G2D2D2
D2 | c2ccB2dB | A2z4
D2 | c2c2cBA2 | B2B2BA
G2 | A2AAF2EF | G2B2d2
D2 | c2c2cBAG | B2B2BA
G2 | A2AAF2EF | G2z4

@@@ Tune index: 8604
